X: 9
T: Missa Assumpta est Maria / Gloria
N: Derived from Rue1003b-Missa_Assumpta_est_Maria-Gloria.krn
C: Pierre de la Rue
%%abc-version 2.0
%%abcx-abcm2ps-target-version 5.9.1 (29 Sep 2008)
%%abc-creator hum2abc beta
%%abcx-conversion-date 2019/02/17 08:01:09
%%abc-edited-by Jesse Rodin
%%abc-edited-by Chris Gage 11-19-2012
%%abcx-initial-encoding-date 2012/11/19/
%%humdrum-veritas 2201855792
%%humdrum-veritas-data 997449159
%%linebreak <none>
%%barnumbers 0
L: 1/4
M: 3/1
Q: 1/2=120
%%staves [1 2 3 4]
V: 1 clef=treble-8
V: 2 clef=treble-8
V: 3 clef=bass
V: 4 clef=bass
K: F
[V:1] c8c4 | 
[V:2] G8A4 | 
[V:3] C,8C,4- | 
[V:4] C,8F,,4- | 
[V:1] A8c4 | 
[V:2] c8A4 | 
[V:3] C,4E,8 | 
[V:4] F,,4C,8 | 
[V:1] d6B2d2f2- | 
[V:2] B3cd2d3cAB | 
[V:3] F,12 | 
[V:4] B,,4B,,2D,4D,2 | 
[V:1] f2e2e8 | 
[V:2] c12 | 
[V:3] G,8z2G,2 | 
[V:4] C,8z2C,2 | 
[V:1] z2e2e2e2f4- | 
[V:2] z2c2c2c2F4- | 
[V:3] G,2G,2A,8 | 
[V:4] C,2C,2A,,4D,4- | 
[V:1] f4d4c4 | 
[V:2] F4F4E2A2- | 
[V:3] A,4A,8 | 
[V:4] D,8A,,4 | 
[V:1] c2d3cc4c2 | 
[V:2] ADD4F3GA2 | 
[V:3] F,3E,F,G,A,4A,2 | 
[V:4] A,,2B,,3F,,F,,4F,,2 | 
[V:1] d2f4e2e3d | 
[V:2] B2A2c6c2 | 
[V:3] G,2F,2G,4G,4 | 
[V:4] B,,2D,2C,4C,4 | 
[V:1] !fermata!f8z4 | 
[V:2] !fermata!A8z4 | 
[V:3] !fermata!F,8z4 | 
[V:4] !fermata!F,,8z4 | 
[V:1] z4e4e2e2 | 
[V:2] c4A2A2G4 | 
[V:3] z12 | 
[V:4] z12 | 
[V:1] d4d2f4e2 | 
[V:2] G2B4A2F2A2- | 
[V:3] z12 | 
[V:4] B,,4B,,2B,,2A,,4 | 
[V:1] c2e4d4d2 | 
[V:2] A2G6B4 | 
[V:3] z12 | 
[V:4] A,,2C,4B,,2G,,2B,,2- | 
[V:1] f4e4e2g2- | 
[V:2] B2c4c2G4 | 
[V:3] z12 | 
[V:4] B,,2A,,4A,,2C,4 | 
[V:1] g2d2f3ec2e2- | 
[V:2] B4B2F2A2G2- | 
[V:3] z12 | 
[V:4] G,,2B,,3A,,B,,2C,B,,A,,G,, | 
[V:1] efgab4a4- | 
[V:2] GFF4E2F4 | 
[V:3] z12 | 
[V:4] A,,4G,,4z2D,2 | 
[V:1] a2gfe2d4g2- | 
[V:2] z2A2A2B3AGF | 
[V:3] z12 | 
[V:4] D,2D,2C,2B,,2G,,3A,,/B,,/ | 
[V:1] gefedcc4=B2 | 
[V:2] E2D2F2E2D4 | 
[V:3] z12 | 
[V:4] C,2B,,3A,,C,2G,,4 | 
[V:1] c12 | 
[V:2] C12 | 
[V:3] z4z4F,4 | 
[V:4] z4z4F,,4 | 
[V:1] z12 | 
[V:2] z12 | 
[V:3] E,4C,8 | 
[V:4] C,4C,2A,,4A,,2 | 
[V:1] z12 | 
[V:2] z12 | 
[V:3] D,6D,2D,4 | 
[V:4] B,,2G,,4F,,2G,,2B,,2- | 
[V:1] z12 | 
[V:2] z12 | 
[V:3] C,4D,3E,F,G,E,2 | 
[V:4] B,,2A,,2B,,2D,4C,2 | 
[V:1] z12 | 
[V:2] z12 | 
[V:3] D,4G,4F,2G,2 | 
[V:4] B,,2G,,3A,,B,,C,A,,2G,,2 | 
[V:1] z12 | 
[V:2] z12 | 
[V:3] E,2A,4A,2A,2B,2- | 
[V:4] C,4A,,2D,3C,B,,A,, | 
[V:1] z12 | 
[V:2] z12 | 
[V:3] B,A,G,F,E,2A,3G,F,E, | 
[V:4] G,,2C,3B,,A,,G,,F,,4 | 
[V:1] z12 | 
[V:2] z12 | 
[V:3] D,C,G,4F,3E,E,2 | 
[V:4] B,,3A,,B,,A,,G,,F,,G,,4 | 
[V:1] z12 | 
[V:2] C4C2D3EF2- | 
[V:3] F,12 | 
[V:4] F,,12 | 
[V:1] c4c2d3ef2- | 
[V:2] F2F2C2G4F2 | 
[V:3] z12 | 
[V:4] z12 | 
[V:1] f2f2cdefg2f2 | 
[V:2] D2F4E2D4 | 
[V:3] z12 | 
[V:4] F,,4F,,2G,,3A,,B,,2- | 
[V:1] d2f4e4d2- | 
[V:2] F3GA4A2B2- | 
[V:3] z12 | 
[V:4] B,,2B,,2F,,G,,A,,B,,C,2B,,2 | 
[V:1] d2d2f2g2e4 | 
[V:2] B2B2F2B4A2 | 
[V:3] z12 | 
[V:4] G,,2D,4_E,2C,4 | 
[V:1] d4f8 | 
[V:2] B8c4- | 
[V:3] F,12- | 
[V:4] B,,8F,,4- | 
[V:1] c2f4e3dcB | 
[V:2] c12 | 
[V:3] F,4G,8 | 
[V:4] F,,4C,8 | 
[V:1] A8z2d2 | 
[V:2] z4z4F4 | 
[V:3] F,8F,4 | 
[V:4] z2D,2D,2D,3C,B,,A,, | 
[V:1] d2d4d3cBA | 
[V:2] G8B4 | 
[V:3] B,4B,2B,3A,G,F, | 
[V:4] G,,4z2G,,2G,,2G,,2 | 
[V:1] G4z2G2G2G2 | 
[V:2] c8c4 | 
[V:3] E,4z2E,2E,2E,2 | 
[V:4] C,12 | 
[V:1] A4A2c4c2 | 
[V:2] c6F6 | 
[V:3] F,4F,2A,4A,2 | 
[V:4] F,,12 | 
[V:1] B8z2B2 | 
[V:2] D6_E2D2B,2- | 
[V:3] G,12- | 
[V:4] G,,12 | 
[V:1] B2B2G2B3cde | 
[V:2] B,2B2B2G2B4 | 
[V:3] G,12 | 
[V:4] z2G,,2G,,2G,,2G,,A,,B,,C, | 
[V:1] f2d4c4=B2 | 
[V:2] A2B2G8 | 
[V:3] F,4E,2C,2D,4 | 
[V:4] D,2B,,2C,4G,,4 | 
[V:1] c12 | 
[V:2] E4z4z2c2 | 
[V:3] C,12 | 
[V:4] z2G,2G,2G,2E,4 | 
[V:1] z12 | 
[V:2] c2c2A4A2B2- | 
[V:3] z12 | 
[V:4] E,2F,3D,D,4D,2 | 
[V:1] z12 | 
[V:2] BGG4G2A3F | 
[V:3] z12 | 
[V:4] G,3F,E,D,C,4C,2 | 
[V:1] z12 | 
[V:2] F2A2G2c4=B2 | 
[V:3] z12 | 
[V:4] D,2C,2E,3F,D,4 | 
[V:1] z4z4e4 | 
[V:2] c8c4 | 
[V:3] G,12 | 
[V:4] C,8C,4 | 
[V:1] f8d4- | 
[V:2] d8B4- | 
[V:3] B,8F,4- | 
[V:4] B,,12- | 
[V:1] d4c8 | 
[V:2] B4A8 | 
[V:3] F,12 | 
[V:4] B,,4F,,8 | 
[V:1] B2B2B2B2A4 | 
[V:2] G6G2F2F2 | 
[V:3] D,12 | 
[V:4] G,,3F,,G,,A,,B,,C,D,4 | 
[V:1] B4G2B3cd2 | 
[V:2] G3ABcd2G2B2- | 
[V:3] z4D,4D,2D,2 | 
[V:4] G,,12 | 
[V:1] G2f2edcBA4 | 
[V:2] B2A4G3^F^F2 | 
[V:3] D,4D,8 | 
[V:4] z12 | 
[V:1] G4z2d2e2e2 | 
[V:2] G2B3cd2c4- | 
[V:3] z4G,8 | 
[V:4] G,,4B,,2B,,2C,4 | 
[V:1] f3ec3defg2- | 
[V:2] c4A2c3BG2- | 
[V:3] A,8G,4- | 
[V:4] F,,4F,3E,C,3D, | 
[V:1] gfd4f2d2f2 | 
[V:2] GABcd4B2d2 | 
[V:3] G,4F,8 | 
[V:4] E,F,G,2D,2B,,4B,,2 | 
[V:1] e2d4c2B2A2 | 
[V:2] c2B2G2A2B2c2- | 
[V:3] z2B,4A,2G,2F,2 | 
[V:4] C,2G,,2B,,2F,,2G,,2A,,B,, | 
[V:1] G12 ||  
[V:2] c2c2c8 ||  
[V:3] E,8E,4 ||  
[V:4] C,8C,4 ||  
[V:1]  [K:F] [K:clef=treble-8][M:2/1]e8 | 
[V:2]  [K:F] [K:clef=treble-8][M:2/1]c8 | 
[V:3]  [K:F] [K:clef=bass][M:2/1]C,8 | 
[V:4]  [K:F] [K:clef=bass][M:2/1]C,8 | 
[V:1] e4e2c2- | 
[V:2] c4c4 | 
[V:3] C,4C,4 | 
[V:4] A,,4A,,4 | 
[V:1] c2BAA4- | 
[V:2] G4c4 | 
[V:3] E,8 | 
[V:4] C,4C,2A,,2- | 
[V:1] A4f4- | 
[V:2] c6A2- | 
[V:3] F,8- | 
[V:4] A,,2G,,F,,F,,4- | 
[V:1] f4f4 | 
[V:2] A2GFA4 | 
[V:3] F,8 | 
[V:4] F,,4F,,4 | 
[V:1] e6dc | 
[V:2] G4c4 | 
[V:3] G,8- | 
[V:4] C,4C,4 | 
[V:1] d2c2g4 | 
[V:2] B2c2C4 | 
[V:3] G,8 | 
[V:4] G,,2C,3D,E,2 | 
[V:1] f4d4- | 
[V:2] F8- | 
[V:3] A,8- | 
[V:4] D,4F,4 | 
[V:1] d4f4 | 
[V:2] F8 | 
[V:3] A,8- | 
[V:4] D,4D,4 | 
[V:1] d4f4- | 
[V:2] z4z2F2 | 
[V:3] A,8 | 
[V:4] F,4D,4- | 
[V:1] f4c4 | 
[V:2] F2F2A3B | 
[V:3] F,8 | 
[V:4] D,4F,4 | 
[V:1] z2c2c2c2 | 
[V:2] c4G4 | 
[V:3] G,8- | 
[V:4] C,8- | 
[V:1] e3fg4 | 
[V:2] c8 | 
[V:3] G,8 | 
[V:4] C,8 | 
[V:1] c4f4 | 
[V:2] A4A2A2- | 
[V:3] F,8 | 
[V:4] z2F,,2F,,2F,,2 | 
[V:1] e4e4 | 
[V:2] A2GFE3D | 
[V:3] z8 | 
[V:4] A,,3B,,C,4 | 
[V:1] a3gf2e2- | 
[V:2] F4D2G2- | 
[V:3] z8 | 
[V:4] F,,4B,,4 | 
[V:1] e2d4^c2 | 
[V:2] G2F2E4 | 
[V:3] z8 | 
[V:4] A,,2F,,2G,,2A,,2 | 
[V:1] d4z4 | 
[V:2] D8 | 
[V:3] F,8 | 
[V:4] D,,4D,4 | 
[V:1] f4f2f2- | 
[V:2] A4A2A2- | 
[V:3] F,4F,4 | 
[V:4] D,2D,4D,2 | 
[V:1] f2f2f2f2 | 
[V:2] A2A2d2d2 | 
[V:3] F,4F,4 | 
[V:4] D,4B,,4 | 
[V:1] f4c4- | 
[V:2] c4A4- | 
[V:3] F,8 | 
[V:4] F,,8 | 
[V:1] c4c4- | 
[V:2] A4G4- | 
[V:3] E,8 | 
[V:4] C,6C,2 | 
[V:1] c2c2c2c2 | 
[V:2] G2G2F2F2 | 
[V:3] C,8 | 
[V:4] C,2C,2A,,2A,,2 | 
[V:1] B4A2B2- | 
[V:2] G2d3Ad2- | 
[V:3] D,8- | 
[V:4] G,,2B,,2F,,2G,,2 | 
[V:1] BAG4^F2 | 
[V:2] d2cBA4 | 
[V:3] D,8 | 
[V:4] D,,8 | 
[V:1] G2B2c2d2- | 
[V:2] G8- | 
[V:3] D,8- | 
[V:4] G,,8- | 
[V:1] d2c4=B2 | 
[V:2] G8 | 
[V:3] D,8 | 
[V:4] G,,8 | 
[V:1] c8 | 
[V:2] z8 | 
[V:3] C,2E,2F,2G,2- | 
[V:4] C,4F,,2C,2 | 
[V:1] c6A2 | 
[V:2] z8 | 
[V:3] G,2F,4E,2 | 
[V:4] A,,2F,,2C,4 | 
[V:1] A8 | 
[V:2] z8 | 
[V:3] F,8 | 
[V:4] F,,8 | 
[V:1] z8 | 
[V:2] z8 | 
[V:3] D,6C,2 | 
[V:4] B,,4B,,2A,,2- | 
[V:1] z8 | 
[V:2] z4c4 | 
[V:3] B,,4A,,4 | 
[V:4] A,,2G,,4F,,2 | 
[V:1] z8 | 
[V:2] B4G2A2- | 
[V:3] G,,4z4 | 
[V:4] G,,2B,,4C,2- | 
[V:1] z8 | 
[V:2] A2G4^F2 | 
[V:3] z4z2C,2 | 
[V:4] C,B,,A,,G,,A,,4 | 
[V:1] z8 | 
[V:2] G4z2F2 | 
[V:3] D,2E,2F,4 | 
[V:4] G,,4z4 | 
[V:1] z8 | 
[V:2] G2A2B4- | 
[V:3] E,4D,2G,2 | 
[V:4] C,4B,,2G,,2 | 
[V:1] z8 | 
[V:2] B4A4 | 
[V:3] D,2G,4F,2 | 
[V:4] B,,2C,2D,4 | 
[V:1] z8 | 
[V:2] G3AB2c2- | 
[V:3] E,2G,4E,2 | 
[V:4] G,,4z4 | 
[V:1] z8 | 
[V:2] c2B2c3B | 
[V:3] D,4C,3D, | 
[V:4] G,,4A,,2C,2- | 
[V:1] z8 | 
[V:2] AGB4G2- | 
[V:3] E,2F,4D,2- | 
[V:4] C,2D,3C,B,,2 | 
[V:1] z8 | 
[V:2] G2^F2G4 | 
[V:3] D,2C,2D,4 | 
[V:4] A,,4G,,4 | 
[V:1] d4d2c2 | 
[V:2] B4B2A2 | 
[V:3] z8 | 
[V:4] z8 | 
[V:1] B3cA4 | 
[V:2] G4^F4 | 
[V:3] z8 | 
[V:4] z8 | 
[V:1] G4z2d2 | 
[V:2] G4B4 | 
[V:3] z8 | 
[V:4] z8 | 
[V:1] d2d2c4 | 
[V:2] B2B2A4 | 
[V:3] z8 | 
[V:4] z4F,,4 | 
[V:1] B4f4- | 
[V:2] G4d4- | 
[V:3] z8 | 
[V:4] G,,4B,,4- | 
[V:1] f2f2d4 | 
[V:2] d2d2B2G2- | 
[V:3] z8 | 
[V:4] B,,2B,,2B,,2B,,2 | 
[V:1] c4B4 | 
[V:2] G2F2G4 | 
[V:3] z8 | 
[V:4] A,,4G,,4 | 
[V:1] A4d4- | 
[V:2] F4F4 | 
[V:3] z4z2D,2 | 
[V:4] D,8 | 
[V:1] d2d2d2d2 | 
[V:2] z8 | 
[V:3] D,2D,2G,3F, | 
[V:4] B,,6G,,2 | 
[V:1] g3fedg2- | 
[V:2] z8 | 
[V:3] E,D,G,3F,E,D, | 
[V:4] G,,8 | 
[V:1] gfedc2f2 | 
[V:2] z8 | 
[V:3] C,3D,E,2D,2 | 
[V:4] z8 | 
[V:1] e2d4^c2 | 
[V:2] z4G4 | 
[V:3] F,4E,4 | 
[V:4] z8 | 
[V:1] d8 | 
[V:2] B4B2G2- | 
[V:3] D,8- | 
[V:4] G,,4G,,4 | 
[V:1] z4d4 | 
[V:2] G2FED4 | 
[V:3] D,8- | 
[V:4] B,,6A,,2 | 
[V:1] d4f4- | 
[V:2] G4F4- | 
[V:3] D,8 | 
[V:4] G,,2F,,E,,D,,2D,2- | 
[V:1] f2e2d2cB | 
[V:2] F2GAB4 | 
[V:3] F,8 | 
[V:4] D,2C,2B,,2A,,G,, | 
[V:1] A2c4c2 | 
[V:2] c4A4 | 
[V:3] F,4F,4 | 
[V:4] F,,4F,,4 | 
[V:1] B4A4- | 
[V:2] B4c4- | 
[V:3] F,4F,4 | 
[V:4] B,,4F,,4- | 
[V:1] A4A3B | 
[V:2] c4c4 | 
[V:3] F,8- | 
[V:4] F,,4F,,3G,, | 
[V:1] c2d3cBA | 
[V:2] c2B3cd2 | 
[V:3] F,8 | 
[V:4] A,,2B,,3A,,B,,2 | 
[V:1] G4G4 | 
[V:2] c4c4 | 
[V:3] E,8 | 
[V:4] C,4C,4 | 
[V:1] G4G4 | 
[V:2] c4c4 | 
[V:3] E,4E,4 | 
[V:4] C,4C,4 | 
[V:1] A3Bc2d2- | 
[V:2] c4z4 | 
[V:3] F,8 | 
[V:4] F,,4F,,2B,,2- | 
[V:1] d2c2d2f2- | 
[V:2] z8 | 
[V:3] F,4F,4 | 
[V:4] B,,2A,,2B,,2D,2 | 
[V:1] f2ede4 | 
[V:2] c8 | 
[V:3] G,8 | 
[V:4] C,8 | 
[V:1] e2cdefg2- | 
[V:2] c4G4 | 
[V:3] E,3F,G,A,B,2- | 
[V:4] C,4C,2G,,2- | 
[V:1] g2f4e2 | 
[V:2] B2c2d2c2 | 
[V:3] B,2A,2G,4 | 
[V:4] G,,2A,,2B,,2C,2 | 
[V:1] f8 | 
[V:2] A8 | 
[V:3] F,8 | 
[V:4] F,,8 | 
[V:1] [M:3/1]c8c4 | 
[V:2] [M:3/1]A8A4 | 
[V:3] [M:3/1]z12 | 
[V:4] [M:3/1]z12 | 
[V:1] d8c4 | 
[V:2] B8A4 | 
[V:3] z12 | 
[V:4] z12 | 
[V:1] d4e8 | 
[V:2] B4G8 | 
[V:3] z12 | 
[V:4] z12 | 
[V:1] f8z4 | 
[V:2] F8z4 | 
[V:3] z12 | 
[V:4] z12 | 
[V:1] e4e4e4 | 
[V:2] c4c4c4 | 
[V:3] G,4G,4G,4 | 
[V:4] C,4C,4C,4 | 
[V:1] f8f4 | 
[V:2] d8d4 | 
[V:3] B,12 | 
[V:4] B,,8z4 | 
[V:1] d6c2B4 | 
[V:2] B8A2G2 | 
[V:3] F,8F,4- | 
[V:4] B,,6A,,2B,,2C,2 | 
[V:1] A4d8 | 
[V:2] F4A4D4 | 
[V:3] F,4F,8 | 
[V:4] D,4D,8 | 
[V:1] B8z4 | 
[V:2] D8z4 | 
[V:3] G,8z4 | 
[V:4] G,,8z4 | 
[V:1] d6e2f4 | 
[V:2] B8A4 | 
[V:3] G,8F,4 | 
[V:4] G,,8D,4 | 
[V:1] g8g4 | 
[V:2] c6=B2=B4 | 
[V:3] E,4D,8 | 
[V:4] C,4G,,8 | 
[V:1] e4c8 | 
[V:2] c8z4 | 
[V:3] C,6D,2E,4 | 
[V:4] C,6B,,2A,,2G,,2 | 
[V:1] f6e2d2c2 | 
[V:2] c6B2A2G2 | 
[V:3] A,,4F,6E,2 | 
[V:4] F,,6G,,2A,,4 | 
[V:1] B6c2d4 | 
[V:2] F6G2A4 | 
[V:3] D,2C,2B,,4F,4 | 
[V:4] B,,6A,,2G,,2F,,2 | 
[V:1] _e4d6c2 | 
[V:2] B4A4G4 | 
[V:3] G,4F,6E,2 | 
[V:4] _E,,4F,,4G,,4 | 
[V:1] c8B4 | 
[V:2] F4G8 | 
[V:3] C,4D,8 | 
[V:4] _A,,4G,,8 | 
[V:1] _e6d2c4 | 
[V:2] _E8F4 | 
[V:3] C,8C,4 | 
[V:4] _A,,8A,,4 | 
[V:1] !fermata!=B12 | 
[V:2] !fermata!G12 | 
[V:3] !fermata!D,12 | 
[V:4] !fermata!G,,12 | 
[V:1] c12 |]  
[V:2] G12 |]  
[V:3] C,12 |]  
[V:4] C,12 |]  



